assets/icon/linkedin.svg

<svg fill="none" height="800" viewBox="0 0 48 48" width="800" xmlns="http://www.w3.org/2000/svg"><circle cx="24" cy="24" fill="#0077b5" r="20"/><g clip-rule="evenodd" fill="#fff" fill-rule="evenodd"><path d="m18.7747 14.2839c0 1.2451-.948 2.2527-2.4305 2.2527-1.4248 0-2.3729-1.0076-2.3435-2.2527-.0294-1.3056.9186-2.2839 2.3719-2.2839 1.4541 0 2.3737.9783 2.4021 2.2839zm-4.6548 18.5352v-14.5029h4.5072v14.5019h-4.5072z"/><path d="m22.2393 22.9446c0-1.8089-.0596-3.3511-.1192-4.6264h3.915l.2081 1.9868h.089c.5932-.9196 2.0757-2.3123 4.4779-2.3123 2.9651 0 5.1894 1.9575 5.1894 6.2263v8.602h-4.5073v-8.0372c0-1.8694-.6518-3.1439-2.2829-3.1439-1.246 0-1.9869.86-2.283 1.6898-.1192.2971-.1779.7115-.1779 1.1277v8.3636h-4.5073v-9.8764z"/></g></svg>

<?xml version="1.0" encoding="utf-8"?><!-- Uploaded to: SVG Repo, www.svgrepo.com, Generator: SVG Repo Mixer Tools -->
<svg width="800px" height="800px" viewBox="0 0 48 48" fill="none" xmlns="http://www.w3.org/2000/svg">
<circle cx="24" cy="24" r="20" fill="#0077B5"/>
<path fill-rule="evenodd" clip-rule="evenodd" d="M18.7747 14.2839C18.7747 15.529 17.8267 16.5366 16.3442 16.5366C14.9194 16.5366 13.9713 15.529 14.0007 14.2839C13.9713 12.9783 14.9193 12 16.3726 12C17.8267 12 18.7463 12.9783 18.7747 14.2839ZM14.1199 32.8191V18.3162H18.6271V32.8181H14.1199V32.8191Z" fill="white"/>
<path fill-rule="evenodd" clip-rule="evenodd" d="M22.2393 22.9446C22.2393 21.1357 22.1797 19.5935 22.1201 18.3182H26.0351L26.2432 20.305H26.3322C26.9254 19.3854 28.4079 17.9927 30.8101 17.9927C33.7752 17.9927 35.9995 19.9502 35.9995 24.219V32.821H31.4922V24.7838C31.4922 22.9144 30.8404 21.6399 29.2093 21.6399C27.9633 21.6399 27.2224 22.4999 26.9263 23.3297C26.8071 23.6268 26.7484 24.0412 26.7484 24.4574V32.821H22.2411V22.9446H22.2393Z" fill="white"/>
</svg>
